X:104
T: ES RITTEN DREI REITER WOL UEBER DEN RHEIN
N: E0057
O: Europa, Mitteleuropa, Deutschland, Schlesien
R: erzaehlendes Volks - Lied, Sage, Mord
M: 2/4
L: 1/8
K: G
D | G2FG | A2GA | B2cB | A2z
d | c2Ac | B2GB | A2FD | GBd
d | c2Ac | B2GB | A2FD | G2z

